X:1
T:Title
%%score { ( 1 4 ) | ( 2 3 ) }
L:1/8
M:4/4
K:F
V:1 treble nm="Grand Piano"
V:4 treble 
V:2 bass 
V:3 bass 
V:1
 z4 z2[Q:1/4=100] CC | F2 FF A2 GF | [EG]2 [EG][EG] [EG]2 AB | c2 c[DFB] [CFA]GFE |[M:3/4] F6 | %5
[M:1/4] CC |[M:4/4] F2 FF A2 GF | [EG]2 [EG][EG] [EG]2 AB | c2 c[DFB] [CFA]GFE |[M:3/4] F6 | %10
[M:1/4] AB |[M:4/4] c2 cc dcBA | c2 [EB][FA] [EB]2 [GB][FA] | [EG]2 [EG][EG] [EG]2 [EB][Ec] | %14
 [Ed]2 [Fc][GB] A2 AB | c2 cc dc[CGB][CFA] | [CEG]2 [CEG][CFA] [B,FB]2 [Fd]2 | %17
 [Fc]2 [DFc][DFB] [CFA]GFE | F6 z2 | z4 [EG]4 | z4 F4 | FGA[GB] [Ac]2 AA | G2 A=B [Ec]3 c | %23
 c2 AB c2 AF | F2 [FB][FB] [Fd]3 [Fd] | [Fc]2 [DFc][DFB] [CFA]GFE |[M:8/4] F8 z8 |] %27
V:2
 z4 z2 [F,A,]2 | [F,A,C]2 [F,A,C][F,A,C] [F,CF]2 [F,B,F][F,A,] | [C,C]2 [C,C][C,C] [C,C]2 [F,CF]2 | %3
 [F,A,F]2 [F,A,F]B,, z [B,C][C,A,C][C,G,C] |[M:3/4] [F,A,C]6 |[M:1/4] [F,A,]2 | %6
[M:4/4] [F,A,C]2 [F,A,C][F,A,C] [F,CF]2 [F,B,F][F,A,] | [C,C]2 [C,C][C,C] [C,C]2 [F,CF]2 | %8
 [F,A,F]2 [F,A,F]B,, z [B,C][C,A,C][C,G,C] |[M:3/4] [F,A,C]6 |[M:1/4] [F,CF]2 | %11
[M:4/4] [F,A,F]2 [F,A,F][F,A,F] [F,F]-[F,A,F][F,G,F][F,F] | [G,E]2 [C,G,][C,F,] [C,G,]2 [C,C]2 | %13
 [C,C]2 [C,C][C,C] [C,C]2 [C,G,][C,A,] | [C,B,]2 [D,A,][E,C] [F,CF]2 [F,CF]2 | %15
 [F,A,F]2 [F,A,F][F,A,F] [F,F]-[F,A,F]F,F, | C,2 C,F, D,2 [B,,B,]2 | %17
 [F,A,]2 B,,B,, z [B,C][C,A,C][C,G,C] | [F,A,C]6 z2 | [F,A,F]2 [F,A,C][F,CF] [C,C]C, C,2 | %20
 z4 .[F,A,]2 z2 | [F,C]-[F,B,C][F,CF][F,C] [F,C]2[K:treble] [F,CF][F,CF] | %22
 [G,CE]2 [G,=B,F][G,F][K:bass] [C,G,]3 [F,A,F] | [F,A,F]2 [F,CF][F,CF] [F,A,F]2 [F,CF][_E,A,] | %24
 [D,B,]2 [D,B,][D,B,] [B,,B,]3 [B,,B,] | [F,A,]2 B,,B,, z [B,C][C,A,C][C,G,C] | %26
[M:8/4] [F,A,C]8 z8 |] %27
V:3
 x8 | x8 | x8 | z4 C,2 z2 |[M:3/4] x6 |[M:1/4] x2 |[M:4/4] x8 | x8 | z4 C,2 z2 |[M:3/4] x6 | %10
[M:1/4] x2 |[M:4/4] z4 .B,2 z2 | x8 | x8 | x8 | z4 .B,2 z2 | x8 | z4 C,2 z2 | x8 | x8 | %20
 [C,G,]2 [C,G,C][C,B,C] C-[F,C-][F,C][F,A,] | .A,2 z2 z4[K:treble] | x4[K:bass] x4 | x8 | x8 | %25
 z4 C,2 z2 |[M:8/4] x16 |] %27
V:4
 x8 | x8 | x8 | x8 |[M:3/4] x6 |[M:1/4] x2 |[M:4/4] x8 | x8 | x8 |[M:3/4] x6 |[M:1/4] x2 | %11
[M:4/4] x8 | x8 | x8 | x8 | x8 | x8 | x8 | x8 | c2 FA z C C2 | [EB]2 EG z A,A,C | x8 | x8 | x8 | %24
 x8 | x8 |[M:8/4] x16 |] %27

